ui/StatusQ/src/assets/img/icons/network/Network=Arbitrum.svg

<svg fill="none" height="500" viewBox="0 0 503 500" width="503" xmlns="http://www.w3.org/2000/svg"><path d="m0 250c0-138.071 113.429-250 251.5-250s251.5 111.929 251.5 250-113.429 250-251.5 250-251.5-111.929-251.5-250z" fill="#2d374b"/><path d="m291.788 234.692 26.095-44.304 70.337 109.615.033 21.036-.229-144.756c-.167-3.539-2.044-6.776-5.041-8.685l-126.632-72.8824c-2.962-1.4565-6.719-1.441-9.676.0452-.399.2008-.775.4182-1.133.6554l-.441.278-122.918 71.2708-.477.216c-.614.283-1.233.641-1.816 1.058-2.33 1.673-3.878 4.146-4.378 6.919-.075.421-.131.849-.157 1.28l.193 117.963 65.516-101.604c8.248-13.473 26.22-17.813 42.903-17.577l19.581.518-115.371 185.127 13.6 7.835 116.754-192.775 51.605-.187-116.453 197.639 48.529 27.928 5.798 3.337c2.452.997 5.343 1.047 7.817.154l128.412-74.459-24.55 14.234zm9.956 143.478-49.015-76.972 29.92-50.8 64.372 101.518z" fill="#2d374b"/><path d="m252.729 301.198 49.015 76.972 45.278-26.254-64.372-101.518z" fill="#28a0f0"/><path d="m388.253 321.039-.033-21.036-70.337-109.615-26.095 44.304 67.901 109.879 24.55-14.234c2.409-1.957 3.865-4.829 4.019-7.928z" fill="#28a0f0"/><path d="m93.5068 340.877 34.6692 19.988 115.371-185.127-19.581-.518c-16.683-.236-34.654 4.104-42.903 17.577l-65.516 101.604-22.0413 33.885v12.591z" fill="#fff"/><path d="m310.135 175.738-51.604.187-116.754 192.775 40.808 23.51 11.098-18.833z" fill="#fff"/><path d="m410 175.472c-.431-10.799-6.274-20.685-15.428-26.44l-128.292-73.8192c-9.055-4.5624-20.367-4.5679-29.435-.0033-1.072.5406-124.763 72.3175-124.763 72.3175-1.711.821-3.36 1.8-4.911 2.91-8.1715 5.86-13.1525 14.965-13.6641 24.969v152.881l22.0411-33.885-.193-117.963c.026-.431.08-.855.157-1.274.497-2.776 2.046-5.252 4.378-6.925.583-.417 126.385-73.2773 126.785-73.4781 2.958-1.4862 6.715-1.5016 9.676-.0452l126.632 72.8823c2.997 1.909 4.874 5.146 5.041 8.685v146.126c-.153 3.1-1.377 5.97-3.786 7.928l-24.551 14.234-12.667 7.345-45.277 26.254-45.917 26.626c-2.474.894-5.365.844-7.817-.154l-54.327-31.265-11.098 18.832 48.822 28.126c1.614.918 3.054 1.732 4.233 2.396 1.829 1.026 3.074 1.711 3.514 1.924 3.47 1.686 8.462 2.668 12.961 2.668 4.125 0 8.147-.758 11.953-2.249l133.369-77.282c7.655-5.934 12.158-14.883 12.564-24.578z" fill="#96bedc"/></svg>

<svg width="503" height="500" viewBox="0 0 503 500" fill="none" xmlns="http://www.w3.org/2000/svg">
<path d="M0 250C0 111.929 113.429 0 251.5 0C389.571 0 503 111.929 503 250C503 388.071 389.571 500 251.5 500C113.429 500 0 388.071 0 250Z" fill="#2D374B"/>
<path d="M291.788 234.692L317.883 190.388L388.22 300.003L388.253 321.039L388.024 176.283C387.857 172.744 385.98 169.507 382.983 167.598L256.351 94.7156C253.389 93.2591 249.632 93.2746 246.675 94.7608C246.276 94.9616 245.9 95.179 245.542 95.4162L245.101 95.6942L122.183 166.965L121.706 167.181C121.092 167.464 120.473 167.822 119.89 168.239C117.56 169.912 116.012 172.385 115.512 175.158C115.437 175.579 115.381 176.007 115.355 176.438L115.548 294.401L181.064 192.797C189.312 179.324 207.284 174.984 223.967 175.22L243.548 175.738L128.177 360.865L141.777 368.7L258.531 175.925L310.136 175.738L193.683 373.377L242.212 401.305L248.01 404.642C250.462 405.639 253.353 405.689 255.827 404.796L384.239 330.337L359.689 344.571L291.788 234.692ZM301.744 378.17L252.729 301.198L282.649 250.398L347.021 351.916L301.744 378.17Z" fill="#2D374B"/>
<path d="M252.729 301.198L301.744 378.17L347.022 351.916L282.65 250.398L252.729 301.198Z" fill="#28A0F0"/>
<path d="M388.253 321.039L388.22 300.003L317.883 190.388L291.788 234.692L359.689 344.571L384.239 330.337C386.648 328.38 388.104 325.508 388.258 322.409L388.253 321.039Z" fill="#28A0F0"/>
<path d="M93.5068 340.877L128.176 360.865L243.547 175.738L223.966 175.22C207.283 174.984 189.312 179.324 181.063 192.797L115.547 294.401L93.5057 328.286V340.877H93.5068Z" fill="white"/>
<path d="M310.135 175.738L258.531 175.925L141.777 368.7L182.585 392.21L193.683 373.377L310.135 175.738Z" fill="white"/>
<path d="M410 175.472C409.569 164.673 403.726 154.787 394.572 149.032L266.28 75.2128C257.225 70.6504 245.913 70.6449 236.845 75.2095C235.773 75.7501 112.082 147.527 112.082 147.527C110.371 148.348 108.722 149.327 107.171 150.437C98.9995 156.297 94.0185 165.402 93.5069 175.406V328.287L115.548 294.402L115.355 176.439C115.381 176.008 115.435 175.584 115.512 175.165C116.009 172.389 117.558 169.913 119.89 168.24C120.473 167.823 246.275 94.9627 246.675 94.7619C249.633 93.2757 253.39 93.2603 256.351 94.7167L382.983 167.599C385.98 169.508 387.857 172.745 388.024 176.284V322.41C387.871 325.51 386.647 328.38 384.238 330.338L359.687 344.572L347.02 351.917L301.743 378.171L255.826 404.797C253.352 405.691 250.461 405.641 248.009 404.643L193.682 373.378L182.584 392.21L231.406 420.336C233.02 421.254 234.46 422.068 235.639 422.732C237.468 423.758 238.713 424.443 239.153 424.656C242.623 426.342 247.615 427.324 252.114 427.324C256.239 427.324 260.261 426.566 264.067 425.075L397.436 347.793C405.091 341.859 409.594 332.91 410 323.215V175.472Z" fill="#96BEDC"/>
</svg>
